X:1
T:Over the Waterfall
%%score ( 1 2 )
L:1/4
M:2/2
I:linebreak $
K:G
V:1 treble nm="Voice" snm="Voice"
V:2 treble 
L:1/8
V:1
 [de] |: f a g/f/ e | d B A2 |"D" f a g/f/ e |"D" d2 d d/e/ |"D" f a g/f/ e | d B A B/ | %7
 c c B A x |]$ A A B B | A/B/A/G/ F2 | A d c/d/ e | f2 z2 | A A B B | A/B/A/G/ F F | A A G [Fg] | %15
 D2 D2 |] %16
V:2
 x2 |: x8 | x8 | x8 | x8 | x8 | x7 | x6 F4 |]$ x8 | x8 | x8 | x8 | x8 | x8 | x8 | x8 |] %16
